X:1
T:Title
%%score { 1 | ( 2 3 ) }
L:1/8
M:6/4
K:Db
V:1 treble nm="Grand Piano"
V:2 bass 
V:3 bass 
V:1
 z6 z4[Q:1/4=108] [A,FA][A,EG] | [A,DF]2 [A,DF]2 [A,EG]2 [DFA]2 [Fd]3 [Ac] | %2
 [Ac]2 [GB]4- [GB]4 [GB]2 | [FA]2 [GB]3 [FA] [FA]2 [EG]2 [DF]2 | [CE]6- [CE]4 [CA][EG] | %5
 [DF]2 [DF]2 [FA]2 [Fd]4 [FA][FA] | B2 G2 B2 [FA]4 [FA]2 | %7
 [DGB]2 [B,Gd]2 [DGB]2 [DFA]2 [A,DF]3[K:bass] [G,CE] |[M:5/4] [F,D]2- [F,D]2- [F,D]6 | %9
[M:1/4][K:treble] [A,DF][A,EG] |[M:6/4] [FA]3 [GB] [FA]2 [DF] [FA]3 [Ad]2 | d3 e d2 B d3 B2 | %12
 [FA]3 [GB] [FA]2 [FA]2 [EG]2 [DF]2 | [CE]6- [CE]4 AA | [Fd]2 [Fd]2 [Gd]2 [Fd]4 [FA][FA] | %15
 B2 G2 B2 d4 cB | [DFA]2 [DF]2 [Fd]2 [EGc]3 [EGB] [Gc]2 |[M:5/4] [Fd]2- [Fd]2- [Fd]6 |] %18
V:2
 z6 z4 D,D, | D,2 D,2 D,2 D,2 [D,A,]3 [F,D] | [F,D]2 [G,D]4- [G,D]4 [G,D]2 | %3
 [D,D]2 [D,D]3 [D,D] [D,D]2 [C,A,]2 [D,A,]2 | [A,,A,]6- [A,,A,]4 [A,,E,][A,,A,] | %5
 [D,A,]2 [D,A,]2 [D,D]2 [D,A,]4 [D,D][D,D] | [G,DG]2 [G,B,D]2 [G,DG]2 [D,D]4 [D,D]2 | %7
 G,,2 G,,2 G,,2 A,,2 A,,3 A,, |[M:5/4] D,2- D,2- D,6 |[M:1/4] D,D, | %10
[M:6/4] [D,D]3 [D,D] [D,D]2 [D,A,] [D,D]3 [F,_C]2 | %11
 [G,B,G]3 [G,CG] [G,B,G]2 [G,DG] [G,B,G]3 [G,DG]2 | [D,D]3 [D,D] [D,D]2 [D,D]2 [C,A,]2 [D,A,]2 | %13
 [A,,A,]6- [A,,A,]4[K:treble] [A,G][A,G] | [D,A,]2 [D,A,]2 [D,B,]2 [D,A,]4 [D,D][D,D] | %15
 [G,DG]2 [G,B,D]2 [G,DG]2 [G,B,G]4 [G,G]-[G,DG] | A,2 A,2 A,2 A,,3 A,, [A,,A,]2 | %17
[M:5/4] [D,A,]2- [D,A,]2- [D,A,]6 |] %18
V:3
 x12 | x12 | x12 | x12 | x12 | x12 | x12 | x12 |[M:5/4] x10 |[M:1/4] x2 |[M:6/4] x12 | x12 | x12 | %13
 x10[K:treble] x2 | x12 | z6 z4 .B,2 | x12 |[M:5/4] x10 |] %18

